X:1641
T:Blue Yowe, Da
R:Reel
O:Shetland
M:4/4
C:Fredemann Stickle
K:D
f|\
af df ed e<e | B/c/B ed B2 Af|\
af df ed ee|e/f/g fe {Bc}d3:|
|:A|\
d2 fd ed BB|d<B ed {Bc}B2 AA|\
d2 fd ed ee|e/f/g f2 e2 d2:|


